public/MobilePreview/time.svg

<svg width="16" height="16" viewBox="0 0 16 16" fill="none" xmlns="http://www.w3.org/2000/svg">
<path d="M7.33317 1.33331C6.01463 1.33331 4.7257 1.72431 3.62937 2.45685C2.53304 3.18939 1.67856 4.23058 1.17398 5.44876C0.669392 6.66693 0.53737 8.00738 0.794605 9.30058C1.05184 10.5938 1.68678 11.7817 2.61913 12.714C3.55148 13.6464 4.73937 14.2813 6.03257 14.5385C7.32578 14.7958 8.66622 14.6638 9.8844 14.1592C11.1026 13.6546 12.1438 12.8001 12.8763 11.7038C13.6088 10.6075 13.9998 9.31852 13.9998 7.99998C13.9998 7.1245 13.8274 6.25759 13.4924 5.44876C13.1573 4.63992 12.6663 3.90499 12.0472 3.28593C11.4282 2.66688 10.6932 2.17581 9.8844 1.84078C9.07556 1.50575 8.20865 1.33331 7.33317 1.33331ZM7.33317 13.3333C6.27834 13.3333 5.24719 13.0205 4.37013 12.4345C3.49307 11.8484 2.80948 11.0155 2.40582 10.041C2.00215 9.06642 1.89653 7.99406 2.10232 6.9595C2.30811 5.92493 2.81606 4.97462 3.56194 4.22874C4.30782 3.48286 5.25813 2.97491 6.29269 2.76912C7.32726 2.56334 8.39961 2.66895 9.37415 3.07262C10.3487 3.47629 11.1816 4.15988 11.7677 5.03694C12.3537 5.914 12.6665 6.94515 12.6665 7.99998C12.6665 9.41447 12.1046 10.771 11.1044 11.7712C10.1042 12.7714 8.74766 13.3333 7.33317 13.3333ZM7.33317 3.99998C7.15636 3.99998 6.98679 4.07022 6.86177 4.19524C6.73675 4.32027 6.66651 4.48984 6.66651 4.66665V7.61331L5.26651 8.41998C5.13808 8.49276 5.03744 8.6061 4.98036 8.74223C4.92329 8.87837 4.91301 9.02959 4.95114 9.1722C4.98927 9.31481 5.07365 9.44072 5.19105 9.53021C5.30845 9.61969 5.45223 9.66768 5.59984 9.66665C5.71662 9.66745 5.83157 9.63757 5.93317 9.57998L7.66651 8.57998L7.72651 8.51998L7.83317 8.43331C7.85924 8.40031 7.8816 8.36454 7.89984 8.32665C7.92157 8.29086 7.93945 8.25287 7.95317 8.21331C7.97131 8.17092 7.98256 8.12591 7.98651 8.07998L7.99984 7.99998V4.66665C7.99984 4.48984 7.9296 4.32027 7.80458 4.19524C7.67955 4.07022 7.50998 3.99998 7.33317 3.99998Z" fill="#1B1B1B"/>
</svg>

<svg xmlns="http://www.w3.org/2000/svg" width="16" height="16" fill="none"><path fill="#1B1B1B" d="M7.333 1.333a6.667 6.667 0 1 0 0 13.334 6.667 6.667 0 0 0 0-13.334Zm0 12a5.334 5.334 0 1 1 0-10.667 5.334 5.334 0 0 1 0 10.667Zm0-9.333a.667.667 0 0 0-.666.667v2.946l-1.4.807A.667.667 0 0 0 5.6 9.667c.117 0 .232-.03.333-.087l1.734-1 .06-.06.106-.087a.573.573 0 0 0 .067-.106.592.592 0 0 0 .053-.114.433.433 0 0 0 .034-.133L8 8V4.667A.667.667 0 0 0 7.333 4Z"/></svg>
